docs/solution-ideas/media/application-integration-using-event-grid.svg

<svg class="architecture-diagram" aria-labelledby="application-integration-using-event-grid" height="441px" viewbox="0 0 268 147" width="804px" xmlns="http://www.w3.org/2000/svg" xmlns:xlink="http://www.w3.org/1999/xlink"><title id="application-integration-using-event-grid">Application integration using Event Grid</title><desc>Event Grid connects your app with other services. For example, create an application topic to send your app’s event data to Event Grid and take advantage of its reliable delivery, advanced routing, and direct integration with Azure. Alternatively, you can use Event Grid with Logic Apps to process data anywhere, without writing code.</desc><path d="M48.2129,130.9172 L7.4119,130.9172 C3.9509,130.9172 1.1459,128.1112 1.1459,124.6502 L1.1459,91.2502 L49.0629,91.2502 L49.0629,98.7502 L54.4799,98.8332 L54.4799,124.6502 C54.4799,128.1112 51.6739,130.9172 48.2129,130.9172" fill="#FFF4CD"></path><polygon fill="#DDF0F7" points="36.6621 41.8616 3.8121 41.8616 3.8121 1.1256 29.3121 1.1256 36.6621 8.8756"></polygon><path d="M248.6094,127.6701 L248.6094,123.6871 L246.6174,123.6871 L246.6174,127.6701 C246.6174,128.3871 245.9804,129.0241 244.9444,129.3431 L242.2354,129.9001 C240.4034,130.4581 239.1294,131.8921 239.1294,133.4851 L239.1294,138.0261 L241.1204,138.0261 L241.1204,133.4851 C241.1204,132.7691 241.7574,132.1311 242.7944,131.8131 L245.5024,131.1751 C247.2114,130.8441 248.4854,129.4061 248.6094,127.6701" fill="#59B4D9"></path><path d="M243.5107,140.0979 L243.5107,136.4329 C243.5077,135.5539 242.7957,134.8429 241.9167,134.8399 L238.2527,134.8399 C237.3737,134.8429 236.6617,135.5539 236.6587,136.4329 L236.6587,140.0979 C236.6617,140.9769 237.3737,141.6889 238.2527,141.6919 L241.9167,141.6919 C242.7957,141.6889 243.5077,140.9769 243.5107,140.0979" fill="#7FBA00"></path><path d="M246.3789,127.6701 L246.3789,123.6871 L248.3699,123.6871 L248.3699,127.6701 C248.3699,128.3871 249.0079,129.0241 250.0429,129.3431 L253.3899,130.0601 C255.2219,130.6171 256.4959,132.0521 256.4959,133.6451 L256.4959,138.1861 L254.5049,138.1861 L254.5049,133.6451 C254.5049,132.9281 253.8669,132.2901 252.8309,131.9721 L249.4849,131.2551 C247.6529,130.6971 246.3789,129.2631 246.3789,127.6701" fill="#59B4D9"></path><path d="M252.1143,140.2571 L252.1143,136.5931 C252.1173,135.7141 252.8293,135.0021 253.7083,134.9991 L257.3723,134.9991 C258.2513,135.0021 258.9633,135.7141 258.9663,136.5931 L258.9663,140.2571 C258.9633,141.1361 258.2513,141.8481 257.3723,141.8511 L253.7083,141.8511 C252.8293,141.8481 252.1173,141.1361 252.1143,140.2571" fill="#7FBA00"></path><polygon fill="#59B4D9" points="246.379 127.511 248.609 127.511 248.609 123.687 246.379 123.687"></polygon><path d="M249.6445,117.7912 L245.4225,117.7912 C244.5435,117.7942 243.8325,118.5062 243.8295,119.3852 L243.8295,123.6062 C243.8325,124.4852 244.5435,125.1972 245.4225,125.2002 L249.6445,125.2002 C250.5235,125.1972 251.2355,124.4852 251.2385,123.6062 L251.2385,119.3852 C251.2355,118.5062 250.5235,117.7942 249.6445,117.7912 Z M246.0595,122.9702 L249.0075,122.9702 L249.0075,120.0222 L246.0595,120.0222 L246.0595,122.9702 Z" fill="#0072C6"></path><path d="M234.1895,146.0725 C232.9315,146.1715 231.6745,145.8645 230.6045,145.1965 C229.8875,144.5585 229.5685,143.5235 229.5685,142.0095 L229.5685,133.7245 C229.5685,132.3705 229.0105,131.6535 227.8955,131.6535 L227.8955,129.5825 C229.0105,129.5825 229.5685,128.8645 229.5685,127.4305 L229.5685,119.3045 C229.5685,117.7915 229.8875,116.6765 230.6045,116.0385 C231.3215,115.4015 232.5165,115.1625 234.1895,115.1625 L234.1895,117.2335 C232.9945,117.2335 232.3575,117.8715 232.3575,119.2245 L232.3575,127.1915 C232.3575,129.0245 231.7995,130.1395 230.6045,130.6175 C231.7195,131.0955 232.3575,132.2115 232.3575,134.0435 L232.3575,141.9295 C232.3245,142.4895 232.4625,143.0465 232.7555,143.5235 C233.1185,143.8695 233.6105,144.0435 234.1095,144.0015 L234.1895,146.0725 Z" fill="#59B4D9"></path><path d="M261.4355,115.1623 C262.6935,115.0633 263.9505,115.3713 265.0205,116.0383 C265.7375,116.6763 266.0565,117.7113 266.0565,119.2243 L266.0565,127.5113 C266.0565,128.8643 266.6145,129.5823 267.7295,129.5823 L267.7295,131.6533 C266.6145,131.6533 266.0565,132.3703 266.0565,133.8043 L266.0565,141.8503 C266.0565,143.3643 265.7375,144.4793 265.0205,145.1173 C264.3035,145.7543 263.1085,146.0723 261.4355,146.0723 L261.4355,144.0013 C262.6305,144.0013 263.2675,143.3643 263.2675,142.0103 L263.2675,134.0433 C263.2675,132.2113 263.8255,131.0963 265.0205,130.6173 C263.9055,130.1403 263.2675,129.0243 263.2675,127.1913 L263.2675,119.3053 C263.3005,118.7453 263.1625,118.1893 262.8695,117.7113 C262.5065,117.3663 262.0145,117.1923 261.5155,117.2333 L261.4355,115.1623 Z" fill="#59B4D9"></path><path d="M248.334,79.2912 L246.577,79.2912 L245.529,80.4242 L248.334,80.4242 L248.334,88.6072 L237.96,88.6072 L235.806,90.9372 L234.421,90.9372 C233.729,90.9372 233.162,90.3702 233.162,89.6782 L233.162,89.8042 C233.162,90.4342 233.665,91.0002 234.295,91.0002 L263.442,91.0002 C264.072,91.0002 264.639,90.4962 264.639,89.8042 L264.639,68.2412 L256.786,68.2682 L248.334,77.3922 L248.334,79.2912 Z" fill="#A0A1A2"></path><path d="M264.6387,68.9035 L264.6387,65.3145 C264.6387,64.6855 264.1347,64.1185 263.4427,64.1185 L260.6097,64.1185 L256.1847,68.9035 L264.6387,68.9035 Z" fill="#7A7A7A"></path><path d="M234.4209,64.1184 L234.2949,64.1184 C233.6649,64.1184 233.1619,64.6854 233.1619,65.3144 L233.1619,65.3784 C233.1619,64.6854 233.7289,64.1184 234.4209,64.1184" fill="#7A7A7A"></path><polygon fill="#0072C6" points="248.334 77.3918 246.577 79.2908 248.334 79.2908"></polygon><polygon fill="#0072C6" points="248.334 80.4241 245.529 80.4241 237.96 88.6081 248.334 88.6081"></polygon><polygon fill="#FFFFFF" points="233.1621 68.9035 233.1621 68.9655 256.1261 68.9655 256.1841 68.9035"></polygon><path d="M233.1621,69.9739 L233.1621,72.0509 L233.1621,89.6779 C233.1621,90.3699 233.7281,90.9379 234.4211,90.9379 L235.8061,90.9379 L237.9601,88.6079 L235.4911,88.6079 L235.4911,80.4239 L245.5291,80.4239 L246.5771,79.2909 L235.4911,79.2909 L235.4911,71.1069 L248.3341,71.1069 L248.3341,77.3919 L256.1261,68.9659 L233.1621,68.9659 L233.1621,69.9739 Z" fill="#A0A1A2"></path><path d="M233.1621,69.9739 L233.1621,72.0509 L233.1621,89.6779 C233.1621,90.3699 233.7281,90.9379 234.4211,90.9379 L235.8061,90.9379 L237.9601,88.6079 L235.4911,88.6079 L235.4911,80.4239 L245.5291,80.4239 L246.5771,79.2909 L235.4911,79.2909 L235.4911,71.1069 L248.3341,71.1069 L248.3341,77.3919 L256.9431,68.0829 L233.1621,67.9789 L233.1621,69.9739 Z" fill="#BBBCBD"></path><path d="M260.6094,64.1184 L234.4214,64.1184 C233.7284,64.1184 233.1624,64.6854 233.1624,65.3784 L233.1624,68.9034 L256.1844,68.9034 L260.6094,64.1184 Z" fill="#7A7A7A"></path><path d="M260.6094,64.1184 L234.4214,64.1184 C233.7284,64.1184 233.1624,64.6854 233.1624,65.3784 L233.1624,68.9034 L256.1844,68.9034 L260.6094,64.1184 Z" fill="#9F9F9F"></path><polygon fill="#0072C6" points="248.334 71.1067 235.491 71.1067 235.491 79.2917 246.577 79.2917 248.334 77.3917"></polygon><polygon fill="#479BD2" points="248.334 71.1067 235.491 71.1067 235.491 79.2917 246.577 79.2917 248.334 77.3917"></polygon><polygon fill="#0072C6" points="235.4912 80.4241 235.4912 88.6081 237.9602 88.6081 245.5292 80.4241"></polygon><polygon fill="#479BD2" points="235.4912 80.4241 235.4912 88.6081 237.9602 88.6081 245.5292 80.4241"></polygon><polygon fill="#FFFFFF" points="249.467 79.292 262.246 79.292 262.246 71.107 249.467 71.107"></polygon><polygon fill="#0072C6" points="249.467 88.608 262.246 88.608 262.246 80.424 249.467 80.424"></polygon><path d="M213.6846,95.5334 C213.3666,95.2214 212.8556,95.2214 212.5376,95.5334 C212.3636,95.6834 212.2636,95.9024 212.2636,96.1334 C212.2636,96.3624 212.3636,96.5814 212.5376,96.7324 L220.0946,104.1354 C220.4076,104.4734 220.4076,104.9964 220.0946,105.3344 L212.3796,112.9954 C212.0676,113.3344 212.0676,113.8554 212.3796,114.1944 C212.7076,114.4814 213.1986,114.4814 213.5266,114.1944 L222.4946,105.3334 C222.7806,104.9854 222.7806,104.4824 222.4946,104.1354 L213.6846,95.5334 Z" fill="#3999C6"></path><path d="M230.0625,80.9172 L230.0625,74.0832 L181.4795,74.0832 L154.6065,100.8752 L131.6755,100.8752 L178.2295,54.1252 L195.0625,54.1252 L195.0625,46.9452 L175.1875,46.9452 L121.6835,100.8752 L113.8855,100.8752 L113.8855,107.7502 L139.6545,107.7502 L166.0625,134.0002 L226.1455,134.0002 L226.1455,127.0002 L169.3955,127.0002 L150.5265,107.7502 L189.1555,107.7502 L188.1495,106.7562 L188.0775,106.6842 L188.0115,106.6052 C187.1195,105.5212 187.1195,103.9472 188.0115,102.8632 L188.0815,102.7792 L188.1585,102.7032 L190.0315,100.8752 L165.8455,100.8752 L185.4795,80.9172 L230.0625,80.9172 Z" fill="#999A9A"></path><path d="M199.666,112.9953 L192.109,105.3343 C191.798,104.9953 191.798,104.4743 192.109,104.1353 L199.512,96.7323 C199.686,96.5813 199.786,96.3623 199.786,96.1333 C199.786,95.9023 199.686,95.6833 199.512,95.5333 C199.354,95.3773 199.145,95.2993 198.938,95.2993 C198.731,95.2993 198.524,95.3773 198.365,95.5333 L189.556,104.1353 C189.269,104.4823 189.269,104.9853 189.556,105.3333 L190.437,106.2053 L198.52,114.1943 C198.684,114.3383 198.889,114.4093 199.093,114.4093 C199.298,114.4093 199.502,114.3383 199.666,114.1943 C199.979,113.8553 199.979,113.3343 199.666,112.9953" fill="#3999C6"></path><polygon fill="#FCD116" points="199.9814 120.4944 199.9794 120.4994 199.9804 120.4974 199.9814 120.4974"></polygon><polygon fill="#FF8C00" points="199.9805 120.4973 199.9795 120.5003 199.9815 120.4973"></polygon><path d="M199.9814,120.4973 L199.9804,120.4973 L199.9814,120.4973 Z" fill="#FF8C00"></path><polygon fill="#FCD116" points="207.3809 100.1213 207.3799 100.1223 214.3629 100.1223 214.3639 100.1213"></polygon><polygon fill="#FBD63C" points="199.9814 120.4973 209.8814 102.6233 203.2104 102.5723 208.8394 89.7503 203.9924 89.7503 198.5194 105.1773 205.1914 105.2283 199.9814 120.4943"></polygon><polygon fill="#FF8C00" points="207.3809 100.1213 214.1559 89.7503 214.1549 89.7503 207.3799 100.1213"></polygon><polygon fill="#FF8C00" points="214.3633 100.1223 199.9813 120.4973 214.3643 100.1223"></polygon><polygon fill="#FAC336" points="209.8818 102.6233 199.9818 120.4973 214.3628 100.1223 207.3798 100.1223 207.3808 100.1213 207.3798 100.1213 214.1548 89.7503 208.8398 89.7503 203.2108 102.5723"></polygon><path d="M227.9766,62.1311 L216.2306,62.1311 L216.2306,59.9951 L219.0786,59.9951 L219.0786,57.5041 L216.2306,57.5041 L216.2306,56.0801 L219.0786,56.0801 L219.0786,53.5881 L216.2306,53.5881 L216.2306,52.1651 L219.0786,52.1651 L219.0786,49.6731 L216.2306,49.6731 L216.2306,48.2491 L219.0786,48.2491 L219.0786,45.7581 L216.2306,45.7581 L216.2306,44.3341 L219.0786,44.3341 L219.0786,41.8431 L216.2306,41.8431 L216.2306,39.7071 L227.9766,39.7071 L227.9766,62.1311 Z M208.2116,56.6671 C207.6066,55.1831 206.8696,53.7481 206.4356,52.1961 C205.9516,53.6421 205.2606,55.0051 204.7056,56.4221 C203.9256,56.4111 203.1466,56.3791 202.3676,56.3471 C203.2816,54.5571 204.1646,52.7521 205.1076,50.9731 C204.3066,49.1391 203.4276,47.3421 202.6016,45.5201 C203.3846,45.4731 204.1676,45.4271 204.9516,45.3841 C205.4816,46.7761 206.0616,48.1501 206.4996,49.5771 C206.9696,48.0651 207.6706,46.6411 208.2726,45.1781 C209.0766,45.1201 209.8846,45.0701 210.6926,45.0311 C209.7426,46.9791 208.7886,48.9261 207.8206,50.8651 C208.7986,52.8591 209.7986,54.8381 210.7816,56.8311 C209.9236,56.7811 209.0696,56.7281 208.2116,56.6671 Z M229.0476,59.3011 C229.0446,53.1261 229.0376,46.9501 229.0556,40.7721 C229.0306,40.1661 229.0736,39.4971 228.7066,38.9701 C228.1836,38.6101 227.5216,38.6531 226.9196,38.6281 C223.3566,38.6471 219.7936,38.6391 216.2306,38.6391 L216.2306,35.7911 L214.1166,35.7911 C208.6566,36.7561 203.1936,37.6931 197.7296,38.6431 L197.7296,63.5551 C203.1616,64.5051 208.5956,65.4161 214.0206,66.4021 L216.2306,66.4021 L216.2306,63.1991 C219.9216,63.1921 223.6136,63.2091 227.3006,63.1991 C227.8946,63.1741 228.7856,63.1561 228.9276,62.4161 C229.1446,61.3951 229.0306,60.3371 229.0476,59.3011 Z" fill="#207245"></path><polygon fill="#207245" points="220.502 44.334 225.485 44.334 225.485 41.843 220.502 41.843"></polygon><polygon fill="#207245" points="220.502 48.249 225.485 48.249 225.485 45.758 220.502 45.758"></polygon><polygon fill="#207245" points="220.502 52.165 225.485 52.165 225.485 49.673 220.502 49.673"></polygon><polygon fill="#207245" points="220.502 56.08 225.485 56.08 225.485 53.588 220.502 53.588"></polygon><polygon fill="#207245" points="220.502 59.995 225.485 59.995 225.485 57.504 220.502 57.504"></polygon><polygon fill="#A0A1A2" points="6.938 100.75 40.813 100.75 40.813 98.125 6.938 98.125"></polygon><polygon fill="#A0A1A2" points="26.188 107.938 40.813 107.938 40.813 105.922 26.188 105.922"></polygon><polygon fill="#A0A1A2" points="26.188 112.875 40.813 112.875 40.813 110.859 26.188 110.859"></polygon><polygon fill="#A0A1A2" points="26.188 118 40.813 118 40.813 115.984 26.188 115.984"></polygon><polygon fill="#A0A1A2" points="26.188 123 40.813 123 40.813 120.984 26.188 120.984"></polygon><polygon fill="#0070C9" points="7.125 123.063 23.25 123.063 23.25 106.063 7.125 106.063"></polygon><polygon fill="#2C8DD4" points="7.125 106.0627 7.125 121.3117 18.644 106.0627"></polygon><path d="M53.0791,124.9084 C53.0791,127.7054 50.8111,129.9724 48.0151,129.9724 L7.1101,129.9724 C4.3131,129.9724 2.0461,127.7054 2.0461,124.9084 L2.0461,91.9744 L48.0621,91.9744 L48.0621,124.9374 L49.9371,124.9374 L49.9371,99.9374 L53.0791,99.9374 L53.0791,124.9084 Z M49.9371,97.9934 L49.9371,90.0624 L0.0001,90.0624 L0.0001,124.9534 C0.0001,128.8804 3.1831,132.0624 7.1091,132.0624 L48.0161,132.0624 C51.9411,132.0624 55.1251,128.8804 55.1251,124.9534 L55.1251,99.9374 L55.1251,97.9934 L49.9371,97.9934 Z" fill="#A0A1A2"></path><path d="M36.1455,41.0002 L4.9375,41.0002 L4.9375,2.0802 L28.9995,2.0802 L28.9995,9.0002 L36.1455,9.0002 L36.1455,41.0002 Z M29.8125,0.0002 L2.9465,0.0002 L2.9465,42.7502 L38.0625,42.7502 L38.0625,8.1882 L29.8125,0.0002 Z" fill="#54B3DB"></path><polygon fill="#54B3DB" points="10.063 13.938 29.125 13.938 29.125 12.001 10.063 12.001"></polygon><polygon fill="#54B3DB" points="10.063 18.875 29.125 18.875 29.125 16.938 10.063 16.938"></polygon><polygon fill="#54B3DB" points="10.063 24 29.125 24 29.125 22.063 10.063 22.063"></polygon><polygon fill="#54B3DB" points="10.063 28.875 29.125 28.875 29.125 26.938 10.063 26.938"></polygon><polygon fill="#54B3DB" points="10.062 33.938 20.75 33.938 20.75 32.001 10.062 32.001"></polygon><polygon fill="#969696" points="22.0459 74.7229 22.0459 70.7499 20.2449 70.7499 20.2449 74.7229 15.5219 74.7229 20.7579 81.7889 25.9929 74.7229"></polygon><polygon fill="#969696" points="20.245 57.25 22.046 57.25 22.046 52.75 20.245 52.75"></polygon><polygon fill="#969696" points="20.245 63.25 22.046 63.25 22.046 58.75 20.245 58.75"></polygon><polygon fill="#969696" points="20.245 69.25 22.046 69.25 22.046 64.75 20.245 64.75"></polygon><polygon fill="#969696" points="99.291 104.1311 92.224 98.8961 92.224 103.3501 88.145 103.3501 88.145 105.1511 92.224 105.1511 92.224 109.3661"></polygon><polygon fill="#969696" points="70.146 105.151 74.646 105.151 74.646 103.35 70.146 103.35"></polygon><polygon fill="#969696" points="76.146 105.151 80.646 105.151 80.646 103.35 76.146 103.35"></polygon><polygon fill="#969696" points="82.146 105.151 86.646 105.151 86.646 103.35 82.146 103.35"></polygon></svg>

<svg class="architecture-diagram" aria-labelledby="application-integration-using-event-grid" height="441" viewbox="0 0 268 147" width="804" xmlns="http://www.w3.org/2000/svg">
    <path d="M48.213 130.917H7.412a6.266 6.266 0 01-6.266-6.267v-33.4h47.917v7.5l5.417.083v25.817a6.267 6.267 0 01-6.267 6.267" fill="#FFF4CD"/>
    <path fill="#DDF0F7" d="M36.662 41.862H3.812V1.126h25.5l7.35 7.75z"/>
    <path d="M248.61 127.67v-3.983h-1.993v3.983c0 .717-.637 1.354-1.673 1.673l-2.709.557c-1.832.558-3.106 1.992-3.106 3.585v4.541h1.991v-4.54c0-.717.637-1.355 1.674-1.673l2.708-.638a3.85 3.85 0 003.107-3.505" fill="#59B4D9"/>
    <path d="M243.51 140.098v-3.665a1.599 1.599 0 00-1.593-1.593h-3.664a1.599 1.599 0 00-1.594 1.593v3.665a1.6 1.6 0 001.594 1.594h3.664a1.6 1.6 0 001.594-1.594" fill="#7FBA00"/>
    <path d="M246.379 127.67v-3.983h1.99v3.983c0 .717.639 1.354 1.674 1.673l3.347.717c1.832.557 3.106 1.992 3.106 3.585v4.541h-1.991v-4.54c0-.718-.638-1.356-1.674-1.674l-3.346-.717c-1.832-.558-3.106-1.992-3.106-3.585" fill="#59B4D9"/>
    <path d="M252.114 140.257v-3.664a1.6 1.6 0 011.594-1.594h3.664a1.6 1.6 0 011.594 1.594v3.664a1.6 1.6 0 01-1.594 1.594h-3.664a1.6 1.6 0 01-1.594-1.594" fill="#7FBA00"/>
    <path fill="#59B4D9" d="M246.379 127.511h2.23v-3.824h-2.23z"/>
    <path d="M249.644 117.791h-4.221a1.599 1.599 0 00-1.594 1.594v4.221a1.599 1.599 0 001.594 1.594h4.221a1.6 1.6 0 001.594-1.594v-4.22a1.6 1.6 0 00-1.594-1.595zm-3.584 5.18h2.947v-2.949h-2.947v2.948z" fill="#0072C6"/>
    <path d="M234.19 146.072a5.897 5.897 0 01-3.585-.876c-.718-.637-1.036-1.672-1.036-3.186v-8.285c0-1.355-.558-2.071-1.673-2.071v-2.071c1.115 0 1.673-.719 1.673-2.153v-8.126c0-1.513.319-2.627 1.036-3.266.716-.636 1.912-.876 3.585-.876v2.072c-1.196 0-1.833.638-1.833 1.99v7.968c0 1.832-.558 2.948-1.752 3.426 1.115.477 1.752 1.594 1.752 3.425v7.886c-.032.56.106 1.118.399 1.595.363.345.855.52 1.353.477l.08 2.071zM261.435 115.162a5.904 5.904 0 013.586.876c.716.638 1.036 1.673 1.036 3.186v8.287c0 1.353.558 2.071 1.672 2.071v2.071c-1.114 0-1.672.717-1.672 2.151v8.046c0 1.514-.32 2.63-1.036 3.267-.718.637-1.913.955-3.586.955v-2.07c1.195 0 1.832-.638 1.832-1.992v-7.967c0-1.832.558-2.947 1.754-3.426-1.115-.477-1.754-1.593-1.754-3.426v-7.886a2.74 2.74 0 00-.397-1.594 1.756 1.756 0 00-1.355-.478l-.08-2.07z" fill="#59B4D9"/>
    <path d="M248.334 79.291h-1.757l-1.048 1.133h2.805v8.183H237.96l-2.154 2.33h-1.385a1.263 1.263 0 01-1.259-1.259v.126c0 .63.503 1.196 1.133 1.196h29.147c.63 0 1.197-.504 1.197-1.196V68.241l-7.853.027-8.452 9.124v1.9z" fill="#A0A1A2"/>
    <path d="M264.639 68.903v-3.589c0-.628-.504-1.195-1.196-1.195h-2.833l-4.425 4.784h8.454zM234.42 64.118h-.125c-.63 0-1.133.567-1.133 1.196v.064c0-.693.567-1.26 1.259-1.26" fill="#7A7A7A"/>
    <path fill="#0072C6" d="M248.334 77.392l-1.757 1.899h1.757zM248.334 80.424h-2.805l-7.569 8.184h10.374z"/>
    <path fill="#FFF" d="M233.162 68.903v.063h22.964l.058-.063z"/>
    <path d="M233.162 69.974v19.704c0 .692.566 1.26 1.26 1.26h1.384l2.154-2.33h-2.469v-8.184h10.038l1.048-1.133h-11.086v-8.184h12.843v6.285l7.792-8.426h-22.964v1.008z" fill="#A0A1A2"/>
    <path d="M233.162 69.974v19.704c0 .692.566 1.26 1.26 1.26h1.384l2.154-2.33h-2.469v-8.184h10.038l1.048-1.133h-11.086v-8.184h12.843v6.285l8.61-9.31-23.782-.103v1.995z" fill="#BBBCBD"/>
    <path d="M260.61 64.118H234.42c-.693 0-1.259.567-1.259 1.26v3.525h23.022l4.425-4.785z" fill="#7A7A7A"/>
    <path d="M260.61 64.118H234.42c-.693 0-1.259.567-1.259 1.26v3.525h23.022l4.425-4.785z" fill="#9F9F9F"/>
    <path fill="#0072C6" d="M248.334 71.107h-12.843v8.185h11.086l1.757-1.9z"/>
    <path fill="#479BD2" d="M248.334 71.107h-12.843v8.185h11.086l1.757-1.9z"/>
    <path fill="#0072C6" d="M235.491 80.424v8.184h2.47l7.568-8.184z"/>
    <path fill="#479BD2" d="M235.491 80.424v8.184h2.47l7.568-8.184z"/>
    <path fill="#FFF" d="M249.467 79.292h12.779v-8.185h-12.779z"/>
    <path fill="#0072C6" d="M249.467 88.608h12.779v-8.184h-12.779z"/>
    <path d="M213.685 95.533a.82.82 0 00-1.147 0 .792.792 0 000 1.2l7.557 7.402a.883.883 0 010 1.2l-7.715 7.66a.885.885 0 000 1.2.872.872 0 001.147 0l8.968-8.862a.944.944 0 000-1.198l-8.81-8.602z" fill="#3999C6"/>
    <path d="M230.063 80.917v-6.834H181.48l-26.873 26.792h-22.931l46.554-46.75h16.833v-7.18h-19.875l-53.504 53.93h-7.799v6.875h25.77L166.062 134h60.083v-7h-56.75l-18.869-19.25h38.63l-1.007-.994-.072-.072-.065-.079a2.95 2.95 0 010-3.742l.07-.084.077-.076 1.873-1.828h-24.187l19.635-19.958h44.583z" fill="#999A9A"/>
    <path d="M199.666 112.995l-7.557-7.66a.887.887 0 010-1.2l7.403-7.403a.794.794 0 000-1.199.816.816 0 00-1.147 0l-8.809 8.602a.941.941 0 000 1.198l.881.872 8.083 7.99a.866.866 0 001.146 0 .883.883 0 000-1.2" fill="#3999C6"/>
    <path fill="#FCD116" d="M199.981 120.494l-.002.005.001-.002h.001z"/>
    <path fill="#FF8C00" d="M199.98 120.497v.003l.002-.003zM199.981 120.497z"/>
    <path fill="#FCD116" d="M207.38 100.121v.001h6.983z"/>
    <path fill="#FBD63C" d="M199.981 120.497l9.9-17.874-6.67-.05 5.628-12.823h-4.847l-5.473 15.427 6.672.051-5.21 15.266z"/>
    <path fill="#FF8C00" d="M207.38 100.121l6.776-10.37h-.001l-6.775 10.37zM214.363 100.122l-14.382 20.375 14.383-20.375z"/>
    <path fill="#FAC336" d="M209.882 102.623l-9.9 17.874 14.38-20.375h-6.982l6.775-10.372h-5.315l-5.63 12.822z"/>
    <path d="M227.977 62.131H216.23v-2.136h2.848v-2.49h-2.848V56.08h2.848v-2.492h-2.848v-1.423h2.848v-2.492h-2.848V48.25h2.848v-2.49h-2.848v-1.425h2.848v-2.49h-2.848v-2.137h11.746v22.424zm-19.765-5.464c-.605-1.484-1.342-2.919-1.776-4.47-.484 1.445-1.175 2.808-1.73 4.225a86.771 86.771 0 01-2.338-.075c.914-1.79 1.797-3.595 2.74-5.374-.801-1.834-1.68-3.63-2.506-5.453.783-.047 1.566-.093 2.35-.136.53 1.392 1.11 2.766 1.548 4.193.47-1.512 1.17-2.936 1.773-4.399.804-.058 1.612-.108 2.42-.147a700.386 700.386 0 01-2.872 5.834c.978 1.994 1.978 3.973 2.96 5.966-.857-.05-1.711-.103-2.57-.164zm20.836 2.634c-.003-6.175-.01-12.35.008-18.529-.025-.606.018-1.275-.35-1.802-.522-.36-1.184-.317-1.786-.342-3.563.02-7.126.011-10.69.011v-2.848h-2.113c-5.46.965-10.923 1.902-16.387 2.852v24.912c5.432.95 10.866 1.861 16.29 2.847h2.21V63.2c3.692-.007 7.384.01 11.07 0 .595-.025 1.486-.043 1.628-.783.217-1.02.103-2.079.12-3.115z" fill="#207245"/>
    <path fill="#207245" d="M220.502 44.334h4.983v-2.491h-4.983zM220.502 48.249h4.983v-2.491h-4.983zM220.502 52.165h4.983v-2.492h-4.983zM220.502 56.08h4.983v-2.492h-4.983zM220.502 59.995h4.983v-2.491h-4.983z"/>
    <path fill="#A0A1A2" d="M6.938 100.75h33.875v-2.625H6.938zM26.188 107.938h14.625v-2.016H26.188zM26.188 112.875h14.625v-2.016H26.188zM26.188 118h14.625v-2.016H26.188zM26.188 123h14.625v-2.016H26.188z"/>
    <path fill="#0070C9" d="M7.125 123.063H23.25v-17H7.125z"/>
    <path fill="#2C8DD4" d="M7.125 106.063v15.249l11.519-15.25z"/>
    <path d="M53.08 124.908a5.064 5.064 0 01-5.065 5.064H7.11a5.064 5.064 0 01-5.064-5.064V91.974h46.016v32.963h1.875v-25h3.142v24.971zm-3.143-26.915v-7.93H0v34.89a7.109 7.109 0 007.11 7.11h40.906a7.11 7.11 0 007.11-7.11V97.993h-5.189z" fill="#A0A1A2"/>
    <path d="M36.145 41H4.938V2.08H29V9h7.145v32zM29.813 0H2.947v42.75h35.117V8.188L29.813 0z" fill="#54B3DB"/>
    <path fill="#54B3DB" d="M10.063 13.938h19.062v-1.937H10.063zM10.063 18.875h19.062v-1.937H10.063zM10.063 24h19.062v-1.937H10.063zM10.063 28.875h19.062v-1.937H10.063zM10.062 33.938H20.75v-1.937H10.062z"/>
    <path fill="#969696" d="M22.046 74.723V70.75h-1.801v3.973h-4.723l5.236 7.066 5.235-7.066zM20.245 57.25h1.801v-4.5h-1.801zM20.245 63.25h1.801v-4.5h-1.801zM20.245 69.25h1.801v-4.5h-1.801zM99.291 104.131l-7.067-5.235v4.454h-4.079v1.801h4.079v4.215zM70.146 105.151h4.5v-1.801h-4.5zM76.146 105.151h4.5v-1.801h-4.5zM82.146 105.151h4.5v-1.801h-4.5z"/>
</svg>
